packages/icons/src/run-tests-ci-step.svg

<svg viewBox="0 0 40 41" xmlns="http://www.w3.org/2000/svg"><path clip-rule="evenodd" d="m3 8.75501c0-.55228.44771-1 1-1h32c.5523 0 1 .44772 1 1v24.99999c0 .5523-.4477 1-1 1h-32c-.55229 0-1-.4477-1-1zm8.0444 24.99999h2.75v-7.1926c0-.069-.0559-.125-.125-.125h-2.5c-.069 0-.125.056-.125.125zm3.75 0v-7.1926c0-.6213-.5036-1.125-1.125-1.125h-2.5c-.6213 0-1.125.5037-1.125 1.125v7.1926h-6.0444v-21.2295h32v21.2295h-6.2306v-16.082c0-.6213-.5036-1.125-1.125-1.125h-2.5c-.6213 0-1.125.5037-1.125 1.125v16.082h-2.7534v-11.1107c0-.6213-.5036-1.125-1.125-1.125h-2.5c-.6213 0-1.125.5037-1.125 1.125v11.1107zm3.7216 0h2.75v-11.1107c0-.069-.0559-.125-.125-.125h-2.5c-.069 0-.125.056-.125.125zm7.5034 0h2.75v-16.082c0-.0691-.0559-.125-.125-.125h-2.5c-.069 0-.125.0559-.125.125zm9.9806-22.2295v-2.77049h-32v2.77049z" fill="#4f5162" fill-rule="evenodd"/></svg>

<svg viewBox="0 0 40 41" xmlns="http://www.w3.org/2000/svg">
<path fill-rule="evenodd" clip-rule="evenodd" d="M3 8.75501C3 8.20273 3.44771 7.75501 4 7.75501H36C36.5523 7.75501 37 8.20273 37 8.75501V33.755C37 34.3073 36.5523 34.755 36 34.755H4C3.44771 34.755 3 34.3073 3 33.755V8.75501ZM11.0444 33.755H13.7944V26.5624C13.7944 26.4934 13.7385 26.4374 13.6694 26.4374H11.1694C11.1004 26.4374 11.0444 26.4934 11.0444 26.5624V33.755ZM14.7944 33.755V26.5624C14.7944 25.9411 14.2908 25.4374 13.6694 25.4374H11.1694C10.5481 25.4374 10.0444 25.9411 10.0444 26.5624V33.755H4V12.5255H36V33.755H29.7694V17.673C29.7694 17.0517 29.2658 16.548 28.6444 16.548H26.1444C25.5231 16.548 25.0194 17.0517 25.0194 17.673V33.755H22.266V22.6443C22.266 22.023 21.7624 21.5193 21.141 21.5193H18.641C18.0197 21.5193 17.516 22.023 17.516 22.6443V33.755H14.7944ZM18.516 33.755H21.266V22.6443C21.266 22.5753 21.2101 22.5193 21.141 22.5193H18.641C18.572 22.5193 18.516 22.5753 18.516 22.6443V33.755ZM26.0194 33.755H28.7694V17.673C28.7694 17.6039 28.7135 17.548 28.6444 17.548H26.1444C26.0754 17.548 26.0194 17.6039 26.0194 17.673V33.755ZM36 11.5255V8.75501L4 8.75501V11.5255H36Z" fill="#4F5162"/>
</svg>
